X: 292
Q: "Slow"
M: C
L: 1/8
K: G
V: 1
(D<G)~G>F (E<A)~A>F | (G<B)~B>A {A}G>F {F}ED |\
(D<G)GF (EA)AF | .G/.A/.B/.c/ .d/.e/.f/.g/ .a/.b/.c'/.d'/ He'2 |\
V: 2 clef=bass middle=d
z |\
[g2d2B2][g2d2B2] [a2e2^c2][a2e2^c2] | [g2d2B2][g2d2B2] [g2d2B2][g2e2c2] |\
[g2d2B2][g2d2B2] [g2e2c2][g2e2c2] | z^c'd'd gdG :|
z |\
zbag zgGz | zce^c dADz |\
g2b2 c'ac'^c' | [d'4d4] [g4G4] |
[g2d2B2][g2d2B2] [a2e2^c2][a2f2d2] | [gdB]zz2 f/g/a/b/ H[c'2g2e2c2] |\
[g2d2B2][g2d2B2] [g2e2c2][g2e2c2] | z^cdD GgG |]


